X: 36
M:2/4
L:1/8
K:D
K:A
[ce]>f [ce]>f|[ce]>a [c2e2]|bb/a/ ff/g/|ac e2|[ce]>f[ce]>f|e>a [c2e2]|bb/a/ fg|a2a2:|



